tindog/images/paw-icon.svg

<svg width="84" height="42" viewBox="0 0 84 42" fill="none" xmlns="http://www.w3.org/2000/svg">
<rect width="84" height="42" rx="21" fill="url(#paint0_linear_2_19)"/>
<path d="M36.0649 23.2075C36.4607 22.3835 36.4172 21.3096 35.9423 20.1839C35.1032 18.1939 33.6581 17.0572 32.4281 17.4193C31.2003 17.781 30.6992 19.4583 31.1812 21.5928C31.4417 22.7465 32.0402 23.6457 32.8666 24.1253C33.263 24.3553 33.6869 24.4729 34.1021 24.4729C34.3065 24.4729 34.5089 24.4444 34.7049 24.3866C35.3012 24.211 35.7842 23.7921 36.0649 23.2075Z" fill="white"/>
<path d="M36.8063 18.1816C37.2978 18.6285 37.8914 18.8683 38.4964 18.8683C38.5606 18.8683 38.6245 18.8657 38.6888 18.8603C39.3625 18.8036 39.9737 18.4637 40.41 17.9031C41.0198 17.1193 41.2294 15.979 40.9998 14.6918C40.5919 12.4052 39.3397 10.8898 37.9546 11.0063C36.5755 11.1224 35.6455 12.7852 35.6406 15.1437C35.638 16.4166 36.0521 17.4954 36.8063 18.1816Z" fill="white"/>
<path d="M51.5721 17.4193C50.3424 17.0572 48.8969 18.194 48.0577 20.1839C47.5829 21.3096 47.5394 22.3835 47.9352 23.2076C48.2159 23.7922 48.6989 24.2111 49.2952 24.3866C49.4912 24.4444 49.6934 24.4729 49.898 24.4729C50.313 24.4729 50.7371 24.3553 51.1335 24.1253C51.9599 23.6457 52.5585 22.7463 52.8189 21.5928C53.3009 19.4583 52.7998 17.7811 51.5721 17.4193Z" fill="white"/>
<path d="M45.3107 18.8603C45.375 18.8656 45.4389 18.8683 45.5028 18.8683C46.108 18.8683 46.7019 18.6285 47.1932 18.1815C47.9474 17.4953 48.3615 16.4166 48.3589 15.1436C48.3537 12.7851 47.424 11.1224 46.0449 11.0062C44.661 10.8902 43.4076 12.4051 42.9997 14.6918C42.7701 15.979 42.9795 17.1192 43.5895 17.9031C44.0258 18.4637 44.637 18.8036 45.3107 18.8603Z" fill="white"/>
<path d="M47.2219 25.0282C45.5873 23.8365 44.9203 22.0129 44.9137 21.9946L44.9108 21.987C43.9929 19.757 42.3235 19.6669 42.0027 19.6733C41.6774 19.668 40.0074 19.757 39.0884 21.9894C39.0806 22.0089 38.2964 23.9622 36.7807 25.0263C35.5497 25.8906 34.4694 27.5271 35.1286 29.5287C35.1479 29.5947 35.3603 30.284 35.9811 30.8704C37.0507 31.8808 38.4595 31.773 39.453 31.5048L39.4596 31.5029C39.4693 31.4998 40.434 31.1998 41.2872 30.9856C41.7537 30.8685 42.2466 30.8688 42.7129 30.9856C43.566 31.1996 44.5309 31.4998 44.5406 31.5029L44.5471 31.5048C45.0292 31.6349 45.4596 31.6899 45.8428 31.6899C46.8912 31.6899 47.5869 31.2786 48.0191 30.8704C48.6399 30.284 48.8523 29.5943 48.8717 29.5287C49.6842 27.061 47.8146 25.4601 47.2219 25.0282Z" fill="white"/>
<defs>
<linearGradient id="paint0_linear_2_19" x1="84" y1="21" x2="3.36173e-07" y2="21" gradientUnits="userSpaceOnUse">
<stop stop-color="#FA695A"/>
<stop offset="1" stop-color="#F83375"/>
</linearGradient>
</defs>
</svg>

<svg xmlns="http://www.w3.org/2000/svg" width="84" height="42" fill="none"><rect width="84" height="42" fill="url(#a)" rx="21"/><path fill="#fff" d="M36.065 23.207c.396-.823.352-1.897-.123-3.023-.839-1.99-2.284-3.127-3.514-2.765-1.228.362-1.729 2.04-1.247 4.174.26 1.154.86 2.053 1.686 2.532.396.23.82.348 1.235.348.205 0 .407-.029.603-.086a2.19 2.19 0 0 0 1.36-1.18ZM36.806 18.182c.492.447 1.085.686 1.69.686.065 0 .128-.002.193-.008.673-.056 1.285-.396 1.721-.957.61-.784.82-1.924.59-3.211-.408-2.287-1.66-3.802-3.045-3.686-1.38.116-2.31 1.78-2.314 4.138-.003 1.273.411 2.351 1.165 3.038ZM51.572 17.42c-1.23-.363-2.675.774-3.514 2.764-.475 1.126-.519 2.2-.123 3.024a2.19 2.19 0 0 0 1.36 1.179c.196.057.398.086.603.086.415 0 .84-.118 1.235-.348.827-.48 1.425-1.379 1.686-2.532.482-2.135-.02-3.812-1.247-4.174ZM45.31 18.86c.065.006.129.008.193.008.605 0 1.199-.24 1.69-.686.754-.687 1.169-1.765 1.166-3.038-.005-2.359-.935-4.022-2.314-4.138-1.384-.116-2.637 1.4-3.045 3.686-.23 1.287-.02 2.427.59 3.211.436.56 1.047.9 1.72.957ZM47.222 25.028c-1.635-1.191-2.302-3.015-2.308-3.033l-.003-.008c-.918-2.23-2.587-2.32-2.908-2.314-.326-.005-1.996.084-2.915 2.316-.007.02-.792 1.973-2.307 3.037-1.231.865-2.312 2.501-1.652 4.503.019.066.231.755.852 1.341 1.07 1.01 2.478.903 3.472.635l.007-.002c.01-.003.974-.303 1.827-.517a2.94 2.94 0 0 1 1.426 0 39.66 39.66 0 0 1 1.828.517l.006.002c.482.13.913.185 1.296.185 1.048 0 1.744-.411 2.176-.82.62-.586.833-1.276.853-1.341.812-2.468-1.057-4.069-1.65-4.5Z"/><defs><linearGradient id="a" x1="84" x2="0" y1="21" y2="21" gradientUnits="userSpaceOnUse"><stop stop-color="#FA695A"/><stop offset="1" stop-color="#F83375"/></linearGradient></defs></svg>
